src/img/icons/icon-30day.svg

<svg width="60" height="60" viewBox="0 0 60 60" fill="none">
<g clip-path="url(#clip0_0_1391)">
<path fill-rule="evenodd" clip-rule="evenodd" d="M-6e-05 -6e-05H59.9999V59.9998H-6e-05V-6e-05Z" fill="#34C3FF"/>
<path fill-rule="evenodd" clip-rule="evenodd" d="M42 20.4378L40.5493 20.3307L40.428 22.0158C38.1042 19.4724 34.832 17.9984 31.3582 17.9984C24.5438 17.9984 18.9999 23.6062 18.9999 30.4985C18.9999 37.3919 24.5438 42.9986 31.3582 42.9986C35.4789 42.9986 39.3161 40.9256 41.6229 37.4527L40.4155 36.6323C38.3794 39.6976 34.9936 41.5277 31.3582 41.5277C25.3458 41.5277 20.4544 36.5804 20.4544 30.4985C20.4544 24.4174 25.3458 19.4704 31.3582 19.4704C34.4502 19.4704 37.3612 20.7946 39.4153 23.0766L37.5642 22.9405L37.4585 24.4073L41.6917 24.7194L42 20.4378ZM23.0665 30.776C23.2144 30.8477 23.6198 31.02 24.0142 31.02C24.3703 31.02 24.6224 30.9145 24.6224 30.6539C24.6224 30.3881 24.321 30.2439 23.9978 30.2439H23.5377V29.5069H23.9814C24.2224 29.5069 24.5347 29.4292 24.5347 29.1968C24.5347 29.0252 24.3594 28.9088 24.0252 28.9088C23.68 28.9088 23.3075 29.0639 23.1652 29.1416L22.946 28.3985C23.198 28.2439 23.6965 28.1001 24.2553 28.1001C25.077 28.1001 25.5865 28.4875 25.5865 29.0252C25.5865 29.413 25.3728 29.7119 24.8907 29.867V29.8778C25.3345 29.9334 25.707 30.2552 25.707 30.7204C25.707 31.424 25.0497 31.834 24.0964 31.834C23.5485 31.834 23.0939 31.7011 22.8529 31.5464L23.0665 30.776ZM26.1889 29.9668C26.1889 30.9532 26.6162 31.834 27.6844 31.834H27.6899C28.7636 31.834 29.1909 30.9532 29.1909 29.9668C29.1909 28.9857 28.7636 28.1001 27.6899 28.1001C26.6162 28.1001 26.1889 28.9857 26.1889 29.9668ZM28.1611 29.9668C28.1611 30.7312 27.9748 31.0804 27.6954 31.0804H27.6899C27.4051 31.0804 27.2188 30.7312 27.2188 29.9668C27.2188 29.2024 27.4051 28.8593 27.6899 28.8593C27.9748 28.8593 28.1611 29.2024 28.1611 29.9668ZM32.1762 27.9998C31.6996 27.9998 31.2339 28.0276 30.8779 28.0832V31.7458C31.0806 31.7788 31.4257 31.8118 31.9736 31.8118C32.7514 31.8118 33.4362 31.6624 33.8909 31.3136C34.2524 31.0361 34.5702 30.5653 34.5702 29.7896C34.5702 29.1078 34.2689 28.6535 33.8361 28.3768C33.4308 28.1162 32.9541 27.9998 32.1762 27.9998ZM32.1543 31.0087C32.0776 31.0087 31.9736 31.0087 31.9133 30.9975V28.8198C31.9681 28.8089 32.0831 28.7924 32.2749 28.7924C32.9432 28.7924 33.4636 29.1025 33.4636 29.8452C33.4636 30.6599 32.9103 31.02 32.1543 31.0087ZM37.6815 31.7675C37.6542 31.6455 37.6377 31.3797 37.6377 31.0917V30.1771C37.6377 29.4465 37.2432 28.9748 36.3174 28.9748C35.7149 28.9748 35.3149 29.1355 35.1396 29.2302L35.3204 29.8835C35.4957 29.784 35.8354 29.668 36.1366 29.668C36.5421 29.668 36.6077 29.7896 36.6077 29.8891V29.9064C35.5889 29.9064 34.9424 30.2439 34.9424 30.9757C34.9424 31.4192 35.293 31.834 35.8847 31.834C36.1914 31.834 36.4763 31.7566 36.6735 31.5351H36.6954L36.7502 31.7675H37.6815ZM35.9669 30.8754C35.9669 30.6539 36.1859 30.5375 36.6407 30.5375V30.6869C36.6407 30.7373 36.6407 30.7921 36.6297 30.8372C36.5859 30.9975 36.4216 31.1199 36.2627 31.1199C36.0709 31.1199 35.9669 31.0309 35.9669 30.8754ZM39.4398 30.2218L39.0838 29.0413H37.9278L38.9851 31.513C39.0235 31.5963 39.029 31.6403 39.029 31.6733C39.029 31.7123 39.007 31.7627 38.9741 31.8013C38.9085 31.8791 38.7605 31.9999 38.6236 32.0454C38.4976 32.0893 38.3825 32.1167 38.2895 32.1228L38.4811 32.9979C38.7715 32.9758 39.1221 32.8871 39.4508 32.6157C39.7466 32.3716 40.0424 31.9777 40.541 30.5983L41.1107 29.0413H39.9821L39.7137 30.2218C39.7027 30.2699 39.6905 30.3268 39.6777 30.3864C39.6522 30.5053 39.6243 30.6355 39.5987 30.7312H39.5768C39.557 30.6627 39.5329 30.5708 39.5081 30.4765C39.4849 30.3878 39.461 30.2971 39.4398 30.2218Z" fill="white"/>
</g>
<defs>
<clipPath id="clip0_0_1391">
<rect width="60" height="60" fill="white"/>
</clipPath>
</defs>
</svg>

<svg width="60" height="60" fill="none"><g clip-path="url(#clip0_0_1391)" fill-rule="evenodd" clip-rule="evenodd"><path d="M0 0h60v60H0V0z" fill="#34C3FF"/><path d="M42 20.438l-1.45-.107-.122 1.685a12.275 12.275 0 00-9.07-4.018c-6.814 0-12.358 5.608-12.358 12.5 0 6.894 5.544 12.5 12.358 12.5 4.12 0 7.958-2.072 10.265-5.545l-1.207-.82c-2.037 3.065-5.422 4.895-9.058 4.895-6.012 0-10.904-4.948-10.904-11.03 0-6.08 4.892-11.028 10.904-11.028 3.092 0 6.003 1.325 8.057 3.607l-1.85-.137-.106 1.467 4.233.312.308-4.281zM23.067 30.776c.147.072.553.244.947.244.356 0 .608-.105.608-.366 0-.266-.301-.41-.624-.41h-.46v-.737h.443c.241 0 .554-.078.554-.31 0-.172-.176-.288-.51-.288-.345 0-.717.155-.86.233l-.219-.744c.252-.154.75-.298 1.31-.298.821 0 1.33.387 1.33.925 0 .388-.213.687-.695.842v.01c.444.056.816.378.816.843 0 .704-.657 1.114-1.61 1.114-.549 0-1.003-.133-1.244-.288l.213-.77zm3.122-.81c0 .987.427 1.868 1.495 1.868h.006c1.074 0 1.5-.88 1.5-1.867 0-.981-.426-1.867-1.5-1.867s-1.501.886-1.501 1.867zm1.972 0c0 .765-.186 1.114-.466 1.114h-.005c-.285 0-.471-.349-.471-1.113 0-.765.186-1.108.47-1.108.286 0 .472.343.472 1.108zM32.176 28c-.476 0-.942.028-1.298.083v3.663c.203.033.548.066 1.096.066.777 0 1.462-.15 1.917-.498.361-.278.68-.749.68-1.524 0-.682-.302-1.136-.735-1.413-.405-.26-.882-.377-1.66-.377zm-.022 3.009c-.076 0-.18 0-.24-.012V28.82c.054-.011.17-.028.36-.028.67 0 1.19.31 1.19 1.053 0 .815-.554 1.175-1.31 1.164zm5.527.758a3.9 3.9 0 01-.043-.675v-.915c0-.73-.395-1.202-1.32-1.202-.603 0-1.003.16-1.178.255l.18.654c.176-.1.515-.216.817-.216.405 0 .47.122.47.221v.017c-1.018 0-1.665.338-1.665 1.07 0 .443.351.858.943.858.306 0 .591-.077.788-.299h.022l.055.232h.931zm-1.714-.892c0-.221.219-.337.674-.337v.149c0 .05 0 .105-.011.15a.4.4 0 01-.367.283c-.192 0-.296-.09-.296-.245zm3.473-.653l-.356-1.18h-1.156l1.057 2.471a.366.366 0 01.044.16c0 .04-.022.09-.055.128a.912.912 0 01-.35.244 1.33 1.33 0 01-.335.078l.192.875c.29-.022.641-.11.97-.382.296-.244.591-.638 1.09-2.018l.57-1.557h-1.129l-.268 1.18-.036.165c-.026.12-.054.25-.08.345h-.021c-.02-.068-.044-.16-.069-.255a15.04 15.04 0 00-.068-.254z" fill="#fff"/></g><defs><clipPath id="clip0_0_1391"><path fill="#fff" d="M0 0h60v60H0z"/></clipPath></defs></svg>
